Project/SVG/fluent_u1f36d.svg

<svg enable-background="new 0 0 128 128" viewBox="0 0 128 128" xmlns="http://www.w3.org/2000/svg"><g transform="scale(4)"><path d="m15.236 15.7898c.6684-.6982 1.7761-.7222 2.4743-.0538l11.75 11.25c.6981.6684.7221 1.7761.0537 2.4743-.6684.6981-1.7761.7221-2.4742.0537l-11.75-11.25c-.6982-.6684-.7222-1.7761-.0538-2.4742z" fill="#f3c07b"/><path d="m3.38559 6.91832c.90263-1.52683 2.19962-2.79288 3.75077-3.65794 6.21474 3.45979 4.86364 8.73962 4.86364 8.73962-2.04063-3.20901-3.98534-4.73615-8.61441-5.08168z" fill="#5092ff"/><path d="m2.00043 11.9068c.01682-1.8422.53175-3.56534 1.41661-5.04132 6.87946.10121 8.58296 5.13452 8.58296 5.13452-3.33306-1.7482-5.71-2.09365-9.99957-.0932z" fill="#00d26a"/><path d="m3.29277 16.9213c-.82297-1.453-1.29277-3.1323-1.29277-4.9213 0-.0521.0004-.1041.00119-.156 6.00753-3.35063 9.99881.156 9.99881.156-3.78273.0949-6.0171 1.1457-8.70723 4.9213z" fill="#fcd53f"/><path d="m6.92097 20.6159c-1.52722-.9022-2.79371-2.1989-3.65925-3.7499 3.52737-5.9074 8.73828-4.866 8.73828-4.866-3.22079 1.9043-4.58041 4.0271-5.07903 8.6159z" fill="#ff9f2e"/><path d="m6.86548 20.583c.10121-6.8795 5.13452-8.583 5.13452-8.583-1.827 3.2975-2.02783 5.7746-.0926 9.9996-1.8424-.0167-3.56577-.5317-5.04192-1.4166z" fill="#f837a2"/><path d="m11.844 21.9988c-3.35063-6.0075.156-9.9988.156-9.9988.1732 3.8368 1.1795 6.105 4.9204 8.7077-1.4528.8227-3.1317 1.2923-4.9204 1.2923-.0521 0-.1041-.0004-.156-.0012z" fill="#c790f1"/><path d="m16.8661 20.7383c-5.9075-3.5274-4.8661-8.7383-4.8661-8.7383 2.0949 3.3202 3.9729 4.7474 8.6143 5.0819-.9022 1.5259-2.1982 2.7914-3.7482 3.6564z" fill="#5092ff"/><path d="m20.583 17.1345c-6.8795-.1012-8.583-5.1345-8.583-5.1345 3.3417 1.8027 5.8524 2.0929 9.9996.0944-.0171 1.8417-.532 3.5645-1.4166 5.0401z" fill="#00d26a"/><path d="m21.9988 12.156c.0008-.0519.0012-.1039.0012-.156 0-1.7885-.4695-3.46729-1.292-4.91992-2.6701 3.88432-4.9157 4.80132-8.708 4.91992 0 0 3.9913 3.5066 9.9988.156z" fill="#fcd53f"/><path d="m17.0816 3.3855c1.526.90216 2.7916 2.19828 3.6567 3.74839-3.5274 5.90751-8.7383 4.86611-8.7383 4.86611 3.1071-1.9284 4.7119-3.77243 5.0816-8.6145z" fill="#ff9f2e"/><path d="m17.1345 3.41708c-1.4752-.88443-3.1974-1.39928-5.0385-1.41659 2.1411 4.26968 1.6393 6.83548-.096 9.99951 0 0 5.0333-1.7035 5.1345-8.58292z" fill="#f837a2"/><path d="m12.156 2.00119c-.0519-.00079-.1039-.00119-.156-.00119-1.787 0-3.46452.46873-4.91632 1.28996 4.14472 2.58926 5.03202 4.92838 4.91632 8.71004 0 0 3.5066-3.99128.156-9.99881z" fill="#c790f1"/></g></svg>

<svg enable-background="new 0 0 128 128" viewBox="0 0 32 32" xmlns="http://www.w3.org/2000/svg">
<path d="M15.236 15.7898C15.9044 15.0916 17.0121 15.0676 17.7103 15.736L29.4603 26.986C30.1584 27.6544 30.1824 28.7621 29.514 29.4603C28.8456 30.1584 27.7379 30.1824 27.0398 29.514L15.2898 18.264C14.5916 17.5956 14.5676 16.4879 15.236 15.7898Z" fill="#F3C07B"/>
<path d="M3.38559 6.91832C4.28822 5.39149 5.58521 4.12544 7.13636 3.26038C13.3511 6.72017 12 12 12 12C9.95937 8.79099 8.01466 7.26385 3.38559 6.91832Z" fill="#5092FF"/>
<path d="M2.00043 11.9068C2.01725 10.0646 2.53218 8.34146 3.41704 6.86548C10.2965 6.96669 12 12 12 12C8.66694 10.2518 6.29 9.90635 2.00043 11.9068Z" fill="#00D26A"/>
<path d="M3.29277 16.9213C2.4698 15.4683 2 13.789 2 12C2 11.9479 2.0004 11.8959 2.00119 11.844C8.00872 8.49337 12 12 12 12C8.21727 12.0949 5.9829 13.1457 3.29277 16.9213Z" fill="#FCD53F"/>
<path d="M6.92097 20.6159C5.39375 19.7137 4.12726 18.417 3.26172 16.866C6.78909 10.9586 12 12 12 12C8.77921 13.9043 7.41959 16.0271 6.92097 20.6159Z" fill="#FF9F2E"/>
<path d="M6.86548 20.583C6.96669 13.7035 12 12 12 12C10.173 15.2975 9.97217 17.7746 11.9074 21.9996C10.065 21.9829 8.34163 21.4679 6.86548 20.583Z" fill="#F837A2"/>
<path d="M11.844 21.9988C8.49337 15.9913 12 12 12 12C12.1732 15.8368 13.1795 18.105 16.9204 20.7077C15.4676 21.5304 13.7887 22 12 22C11.9479 22 11.8959 21.9996 11.844 21.9988Z" fill="#C790F1"/>
<path d="M16.8661 20.7383C10.9586 17.2109 12 12 12 12C14.0949 15.3202 15.9729 16.7474 20.6143 17.0819C19.7121 18.6078 18.4161 19.8733 16.8661 20.7383Z" fill="#5092FF"/>
<path d="M20.583 17.1345C13.7035 17.0333 12 12 12 12C15.3417 13.8027 17.8524 14.0929 21.9996 12.0944C21.9825 13.9361 21.4676 15.6589 20.583 17.1345Z" fill="#00D26A"/>
<path d="M21.9988 12.156C21.9996 12.1041 22 12.0521 22 12C22 10.2115 21.5305 8.53271 20.708 7.08008C18.0379 10.9644 15.7923 11.8814 12 12C12 12 15.9913 15.5066 21.9988 12.156Z" fill="#FCD53F"/>
<path d="M17.0816 3.3855C18.6076 4.28766 19.8732 5.58378 20.7383 7.13389C17.2109 13.0414 12 12 12 12C15.1071 10.0716 16.7119 8.22757 17.0816 3.3855Z" fill="#FF9F2E"/>
<path d="M17.1345 3.41708C15.6593 2.53265 13.9371 2.0178 12.096 2.00049C14.2371 6.27017 13.7353 8.83597 12 12C12 12 17.0333 10.2965 17.1345 3.41708Z" fill="#F837A2"/>
<path d="M12.156 2.00119C12.1041 2.0004 12.0521 2 12 2C10.213 2 8.53548 2.46873 7.08368 3.28996C11.2284 5.87922 12.1157 8.21834 12 12C12 12 15.5066 8.00872 12.156 2.00119Z" fill="#C790F1"/>
</svg>
